src/desktoptheme/breeze/icons/configure.svg

<svg id="svg2" viewBox="0 0 54 32" xmlns="http://www.w3.org/2000/svg">
    <style
        type="text/css"
        id="current-color-scheme">
        .ColorScheme-Text {
            color:#232629;
        }
    </style>
    <g id="22-22-configure">
        <path id="path7" d="m11.5 13c-1.21321 0-2.2202619.85686-2.4511719 2h-6.0488281v1h6.0488281c.23019 1.14407 1.2373119 2 2.4511719 2s2.219019-.85593 2.449219-2h5.050781v-1h-5.050781c-.23091-1.14314-1.236019-2-2.449219-2zm-6 11c-1.385 0-2.5 1.115-2.5 2.5s1.115 2.5 2.5 2.5c1.21386 0 2.2190188-.85593 2.4492188-2h11.0507812v-1h-11.0507812c-.2309101-1.14314-1.2360188-2-2.4492188-2zm0 1c.831 0 1.5.669 1.5 1.5s-.669 1.5-1.5 1.5-1.5-.669-1.5-1.5.669-1.5 1.5-1.5z" class="ColorScheme-Text" fill="currentColor"/>
        <path id="path9" d="m0 10v22h22v-22z" fill="none"/>
    </g>
    <g id="configure">
        <path id="path11" d="m40.5 6a3.5 3.5 0 0 0-3.458984 3h-11.041016v1h11.039062a3.5 3.5 0 0 0 3.460938 3 3.5 3.5 0 0 0 3.458984-3h6.041016v-1h-6.039062a3.5 3.5 0 0 0-3.460938-3zm-11 13a3.5 3.5 0 0 0-3.5 3.5 3.5 3.5 0 0 0 3.5 3.5 3.5 3.5 0 0 0 3.460938-3h17.039062v-1h-17.041016a3.5 3.5 0 0 0-3.458984-3zm0 1a2.5 2.5 0 0 1 2.5 2.5 2.5 2.5 0 0 1-2.5 2.5 2.5 2.5 0 0 1-2.5-2.5 2.5 2.5 0 0 1 2.5-2.5z" class="ColorScheme-Text" fill="currentColor"/>
        <path id="path14" d="m22 0v32h32v-32z" fill="none"/>
    </g>
    <g id="16-16-configure" transform="matrix(.72727273 0 0 .72727273 -16 8.727273)">
        <path id="path9-7" d="m0 10v22h22v-22z" fill="none"/>
        <path id="path4" d="m13.75 13.4375c-1.281473 0-2.358864 0.876289-2.664063 2.0625h-8.335937v1.375h8.335937c0.305199 1.186212 1.38259 2.0625 2.664063 2.0625 1.281474 0 2.358863-0.876288 2.664062-2.0625h2.835938v-1.375h-2.835938c-0.305199-1.186211-1.382588-2.0625-2.664062-2.0625zm-6.875 9.625c-1.281474 0-2.358864 0.876289-2.664063 2.0625h-1.460937v1.375h1.460937c0.305199 1.186211 1.382589 2.0625 2.664063 2.0625s2.358864-0.876289 2.664062-2.0625h9.71094v-1.375h-9.71094c-0.305198-1.186211-1.382588-2.0625-2.664062-2.0625zm0 1.375c0.759385 0 1.375 0.615615 1.375 1.375s-0.615615 1.375-1.375 1.375-1.375-0.615615-1.375-1.375 0.615615-1.375 1.375-1.375z" class="ColorScheme-Text" fill="currentColor"/>
    </g>
</svg>

<?xml version="1.0" encoding="UTF-8" standalone="no"?>
<svg
   xmlns:dc="http://purl.org/dc/elements/1.1/"
   xmlns:cc="http://creativecommons.org/ns#"
   xmlns:rdf="http://www.w3.org/1999/02/22-rdf-syntax-ns#"
   xmlns:svg="http://www.w3.org/2000/svg"
   xmlns="http://www.w3.org/2000/svg"
   xmlns:sodipodi="http://sodipodi.sourceforge.net/DTD/sodipodi-0.dtd"
   xmlns:inkscape="http://www.inkscape.org/namespaces/inkscape"
   version="1.1"
   id="svg2"
   viewBox="0 0 54 32"
   inkscape:version="0.91 r13725"
   sodipodi:docname="configure.svgz">
  <sodipodi:namedview
     pagecolor="#ffffff"
     bordercolor="#666666"
     borderopacity="1"
     objecttolerance="10"
     gridtolerance="10"
     guidetolerance="10"
     inkscape:pageopacity="0"
     inkscape:pageshadow="2"
     inkscape:window-width="1764"
     inkscape:window-height="945"
     id="namedview12"
     showgrid="false"
     inkscape:zoom="7.375"
     inkscape:cx="27"
     inkscape:cy="16"
     inkscape:window-x="0"
     inkscape:window-y="0"
     inkscape:window-maximized="0"
     inkscape:current-layer="svg2" />
  <metadata
     id="metadata16">
    <rdf:RDF>
      <cc:Work
         rdf:about="">
        <dc:format>image/svg+xml</dc:format>
        <dc:type
           rdf:resource="http://purl.org/dc/dcmitype/StillImage" />
        <dc:title />
      </cc:Work>
    </rdf:RDF>
  </metadata>
  <defs
     id="defs3051">
    <style
       id="current-color-scheme"
       type="text/css">
      .ColorScheme-Text {
        color:#31363b;
      }
      </style>
  </defs>
  <g
     id="22-22-configure">
    <path
       id="path7"
       class="ColorScheme-Text"
       d="m 11.5,13 c -1.21321,0 -2.2202619,0.85686 -2.4511719,2 L 3,15 l 0,1 6.0488281,0 c 0.23019,1.14407 1.2373119,2 2.4511719,2 1.21386,0 2.219019,-0.85593 2.449219,-2 L 19,16 19,15 13.949219,15 C 13.718309,13.85686 12.7132,13 11.5,13 Z m -6,11 C 4.115,24 3,25.115 3,26.5 3,27.885 4.115,29 5.5,29 6.71386,29 7.7190188,28.14407 7.9492188,27 L 19,27 19,26 7.9492188,26 C 7.7183087,24.85686 6.7132,24 5.5,24 Z m 0,1 C 6.331,25 7,25.669 7,26.5 7,27.331 6.331,28 5.5,28 4.669,28 4,27.331 4,26.5 4,25.669 4.669,25 5.5,25 Z"
       style="fill:currentColor;fill-opacity:1;stroke:none" />
    <path
       id="path9"
       d="M 0 10 L 0 32 L 22 32 L 22 10 L 0 10 z "
       style="opacity:1;fill:none" />
  </g>
  <g
     id="configure">
    <path
       id="path11"
       class="ColorScheme-Text"
       d="M 40.5,6 A 3.5,3.5 0 0 0 37.041016,9 L 26,9 l 0,1 11.039062,0 A 3.5,3.5 0 0 0 40.5,13 3.5,3.5 0 0 0 43.958984,10 L 50,10 50,9 43.960938,9 A 3.5,3.5 0 0 0 40.5,6 Z m -11,13 A 3.5,3.5 0 0 0 26,22.5 3.5,3.5 0 0 0 29.5,26 3.5,3.5 0 0 0 32.960938,23 L 50,23 50,22 32.958984,22 A 3.5,3.5 0 0 0 29.5,19 Z m 0,1 A 2.5,2.5 0 0 1 32,22.5 2.5,2.5 0 0 1 29.5,25 2.5,2.5 0 0 1 27,22.5 2.5,2.5 0 0 1 29.5,20 Z"
       style="fill:currentColor;fill-opacity:1;stroke:none" />
    <path
       id="path14"
       d="M 22 0 L 22 32 L 54 32 L 54 0 L 22 0 z "
       style="opacity:1;fill:none" />
  </g>
</svg>
